packages/match-icons/twilio/svg/team.svg

<svg fill="none" height="32" viewBox="0 0 32 32" width="32" xmlns="http://www.w3.org/2000/svg"><g stroke="#394762" stroke-linecap="round" stroke-linejoin="round" stroke-width="1.7"><path d="m2.49866 23.5c0 .9283.36875 1.8185 1.02512 2.4749.65638.6564 1.54662 1.0251 2.47488 1.0251s1.81849-.3687 2.47487-1.0251 1.02513-1.5466 1.02513-2.4749-.36875-1.8185-1.02513-2.4749-1.54661-1.0251-2.47487-1.0251-1.8185.3687-2.47488 1.0251c-.65637.6564-1.02512 1.5466-1.02512 2.4749z"/><path d="m10.9987 31c-.4834-.9062-1.20388-1.664-2.08457-2.1925-.88068-.5284-1.88842-.8075-2.91547-.8075s-2.03479.2791-2.91548.8075c-.88069.5285-1.60121 1.2863-2.084523 2.1925"/><path d="m22.4987 23.5c0 .4596.0905.9148.2664 1.3394s.4337.8105.7587 1.1355.7108.5828 1.1355.7587c.4246.1759.8797.2664 1.3394.2664.4596 0 .9147-.0905 1.3393-.2664.4247-.1759.8105-.4337 1.1355-.7587s.5828-.7109.7587-1.1355.2665-.8798.2665-1.3394-.0906-.9148-.2665-1.3394-.4337-.8105-.7587-1.1355-.7108-.5828-1.1355-.7587c-.4246-.1759-.8797-.2664-1.3393-.2664-.4597 0-.9148.0905-1.3394.2664-.4247.1759-.8105.4337-1.1355.7587s-.5828.7109-.7587 1.1355-.2664.8798-.2664 1.3394z"/><path d="m30.9987 31c-.4834-.9062-1.2039-1.664-2.0846-2.1925-.8807-.5284-1.8884-.8075-2.9154-.8075-1.0271 0-2.0348.2791-2.9155.8075-.8807.5285-1.6012 1.2863-2.0845 2.1925"/><path d="m12.4987 4.5c0 .45963.0905.91475.2664 1.33939s.4337.81048.7587 1.13548c.325.32501.7108.58282 1.1355.75871.4246.17589.8797.26642 1.3394.26642.4596 0 .9147-.09053 1.3393-.26642.4247-.17589.8105-.4337 1.1355-.75871.325-.325.5828-.71084.7587-1.13548s.2665-.87976.2665-1.33939-.0906-.91475-.2665-1.33939-.4337-.81048-.7587-1.13548c-.325-.32501-.7108-.58282-1.1355-.75871-.4246-.17589-.8797-.26642-1.3393-.26642-.4597 0-.9148.09053-1.3394.26642-.4247.17589-.8105.4337-1.1355.75871-.325.325-.5828.71084-.7587 1.13548s-.2664.87976-.2664 1.33939z"/><path d="m20.3307 11c-.5344-.6274-1.1986-1.13131-1.9468-1.47685s-1.5624-.52449-2.3866-.52449c-.8241 0-1.6384.17895-2.3865.52449-.7482.34554-1.4124.84945-1.9468 1.47685"/><path d="m12.0667 26.276c2.5536.9736 5.3776.965 7.9253-.024"/><path d="m8.46398 8c-1.09462 1.0252-1.9671 2.2642-2.5634 3.6403-.59631 1.3761-.90375 2.86-.90326 4.3597 0 .3373.02.6667.05066 1"/><path d="m26.948 17c.0293-.3307.0506-.6667.0506-1 .0008-1.4998-.3066-2.9837-.9029-4.3598-.5963-1.3762-1.4689-2.61515-2.5637-3.6402"/></g></svg>

<svg width="32" height="32" viewBox="0 0 32 32" fill="none" xmlns="http://www.w3.org/2000/svg">
<path d="M2.49866 23.5C2.49866 24.4283 2.86741 25.3185 3.52378 25.9749C4.18016 26.6313 5.0704 27 5.99866 27C6.92692 27 7.81715 26.6313 8.47353 25.9749C9.12991 25.3185 9.49866 24.4283 9.49866 23.5C9.49866 22.5717 9.12991 21.6815 8.47353 21.0251C7.81715 20.3687 6.92692 20 5.99866 20C5.0704 20 4.18016 20.3687 3.52378 21.0251C2.86741 21.6815 2.49866 22.5717 2.49866 23.5V23.5Z" stroke="#394762" stroke-width="1.7" stroke-linecap="round" stroke-linejoin="round"/>
<path d="M10.9987 31C10.5153 30.0938 9.79482 29.336 8.91413 28.8075C8.03345 28.2791 7.02571 28 5.99866 28C4.97161 28 3.96387 28.2791 3.08318 28.8075C2.20249 29.336 1.48197 30.0938 0.998657 31" stroke="#394762" stroke-width="1.7" stroke-linecap="round" stroke-linejoin="round"/>
<path d="M22.4987 23.5C22.4987 23.9596 22.5892 24.4148 22.7651 24.8394C22.941 25.264 23.1988 25.6499 23.5238 25.9749C23.8488 26.2999 24.2346 26.5577 24.6593 26.7336C25.0839 26.9095 25.539 27 25.9987 27C26.4583 27 26.9134 26.9095 27.338 26.7336C27.7627 26.5577 28.1485 26.2999 28.4735 25.9749C28.7985 25.6499 29.0563 25.264 29.2322 24.8394C29.4081 24.4148 29.4987 23.9596 29.4987 23.5C29.4987 23.0404 29.4081 22.5852 29.2322 22.1606C29.0563 21.736 28.7985 21.3501 28.4735 21.0251C28.1485 20.7001 27.7627 20.4423 27.338 20.2664C26.9134 20.0905 26.4583 20 25.9987 20C25.539 20 25.0839 20.0905 24.6593 20.2664C24.2346 20.4423 23.8488 20.7001 23.5238 21.0251C23.1988 21.3501 22.941 21.736 22.7651 22.1606C22.5892 22.5852 22.4987 23.0404 22.4987 23.5V23.5Z" stroke="#394762" stroke-width="1.7" stroke-linecap="round" stroke-linejoin="round"/>
<path d="M30.9987 31C30.5153 30.0938 29.7948 29.336 28.9141 28.8075C28.0334 28.2791 27.0257 28 25.9987 28C24.9716 28 23.9639 28.2791 23.0832 28.8075C22.2025 29.336 21.482 30.0938 20.9987 31" stroke="#394762" stroke-width="1.7" stroke-linecap="round" stroke-linejoin="round"/>
<path d="M12.4987 4.5C12.4987 4.95963 12.5892 5.41475 12.7651 5.83939C12.941 6.26403 13.1988 6.64987 13.5238 6.97487C13.8488 7.29988 14.2346 7.55769 14.6593 7.73358C15.0839 7.90947 15.539 8 15.9987 8C16.4583 8 16.9134 7.90947 17.338 7.73358C17.7627 7.55769 18.1485 7.29988 18.4735 6.97487C18.7985 6.64987 19.0563 6.26403 19.2322 5.83939C19.4081 5.41475 19.4987 4.95963 19.4987 4.5C19.4987 4.04037 19.4081 3.58525 19.2322 3.16061C19.0563 2.73597 18.7985 2.35013 18.4735 2.02513C18.1485 1.70012 17.7627 1.44231 17.338 1.26642C16.9134 1.09053 16.4583 1 15.9987 1C15.539 1 15.0839 1.09053 14.6593 1.26642C14.2346 1.44231 13.8488 1.70012 13.5238 2.02513C13.1988 2.35013 12.941 2.73597 12.7651 3.16061C12.5892 3.58525 12.4987 4.04037 12.4987 4.5Z" stroke="#394762" stroke-width="1.7" stroke-linecap="round" stroke-linejoin="round"/>
<path d="M20.3307 11C19.7963 10.3726 19.1321 9.86869 18.3839 9.52315C17.6357 9.17761 16.8215 8.99866 15.9973 8.99866C15.1732 8.99866 14.3589 9.17761 13.6108 9.52315C12.8626 9.86869 12.1984 10.3726 11.664 11" stroke="#394762" stroke-width="1.7" stroke-linecap="round" stroke-linejoin="round"/>
<path d="M12.0667 26.276C14.6203 27.2496 17.4443 27.241 19.992 26.252" stroke="#394762" stroke-width="1.7" stroke-linecap="round" stroke-linejoin="round"/>
<path d="M8.46398 8C7.36936 9.0252 6.49688 10.2642 5.90058 11.6403C5.30427 13.0164 4.99683 14.5003 4.99732 16C4.99732 16.3373 5.01732 16.6667 5.04798 17" stroke="#394762" stroke-width="1.7" stroke-linecap="round" stroke-linejoin="round"/>
<path d="M26.948 17C26.9773 16.6693 26.9986 16.3333 26.9986 16C26.9994 14.5002 26.692 13.0163 26.0957 11.6402C25.4994 10.264 24.6268 9.02505 23.532 8" stroke="#394762" stroke-width="1.7" stroke-linecap="round" stroke-linejoin="round"/>
</svg>
